X: 109105
T: CAPt. CAMPBELL'S STRATHSPEY
Q:"Strathspey."
R: Strathspey.
%R:strathspey
Z: 1997 by John Chambers <jc:trillian.mit.edu>
B: Kerr's Merrie Melodies v.1 p.9 s.1 #5
M: C
L: 1/8
K: Am
uG |\
E<A vA>uB vc>vA uB<uG | D<G vG>uA vB>vd c/B/A/G/ |\
E<A vA>uB vc>vB (c<e) | d<B g>B A2- A :|\
uB |\
A<a a>g e>d c<e | d>e g>e d/c/B/A/ G<B |
A<a a>g e>d c<e | d<B g>B {B}A2- A<B |\
A<a a>g e>d c<e | d>e g>e d/c/B/A/ G<B |\
c<A d>B e>d c<e | d<B g>B {B}A2- A |]

%%sep 1 1 500
%%sep 1 1 500

